X: 31330
T: Paddy McLaughlin's
R: reel
M: 4/4
K: Amajor
|:Bc|dBAF (3[DF][DF][DF] [DF]B|AFDF (3[CE][CE][CE] [CE]c|dBAF (3[DF][DF][DF] [DF]F|AGBG A2:|
|:[C2E2]|A3B cdec|dcde fgaf|edcB Aceg|fdBG AGFE|
A3B cdec|dcde fgaf|edcB Aceg|fdBG A2:|

